packages/core/src/svgs/tokens/branded/VIS.svg

<svg width="24" height="24" viewBox="0 0 24 24" fill="none" xmlns="http://www.w3.org/2000/svg">
<path d="M12.0003 19.0588C15.8987 19.0588 19.059 15.8985 19.059 12C19.059 8.10151 15.8987 4.94116 12.0003 4.94116C8.10175 4.94116 4.94141 8.10151 4.94141 12C4.94141 15.8985 8.10175 19.0588 12.0003 19.0588Z" fill="url(#paint0_linear_364_10313)"/>
<path fill-rule="evenodd" clip-rule="evenodd" d="M6.15281 11.3647L7.8528 9.09999C7.86113 9.08865 7.86511 9.07469 7.86404 9.06066C7.86296 9.04663 7.85689 9.03346 7.84693 9.02352L7.62928 8.80588C7.61849 8.79488 7.61245 8.78009 7.61245 8.7647C7.61245 8.7493 7.61849 8.73452 7.62928 8.72352L9.33522 7.01764C9.34606 7.00655 9.36075 7.00021 9.3764 6.99999H10.2116C10.2263 7.00139 10.2411 6.99719 10.2528 6.98823L11.8234 5.67647C11.8705 5.64117 11.941 5.68823 11.9116 5.74706L11.4234 6.9647C11.4198 6.97465 11.4192 6.98537 11.4212 6.99572C11.4233 7.00607 11.4281 7.01568 11.4352 7.02353C11.541 7.15293 11.7057 7.45293 11.7057 7.88234C11.7057 8.47058 11.7057 9.05881 11.4116 9.35293C11.1882 9.57652 10.4705 9.79407 9.75865 10.0177L9.07633 10.2294C9.06421 10.2338 9.05388 10.2421 9.04692 10.2529L8.4881 11.0882C8.48294 11.0972 8.48022 11.1073 8.48022 11.1176C8.48022 11.1279 8.48294 11.1381 8.4881 11.147L8.74692 11.6706C8.75163 11.6813 8.75303 11.6933 8.75093 11.7048C8.74883 11.7162 8.74334 11.7269 8.73516 11.7353L7.91163 12.5588C7.90145 12.5665 7.88906 12.5706 7.87634 12.5706C7.8636 12.5706 7.85122 12.5665 7.84104 12.5588L6.17046 11.4411C6.15861 11.4329 6.15027 11.4204 6.14701 11.4063C6.14376 11.3921 6.14582 11.3774 6.15281 11.3647ZM8.17634 8.7647L8.47045 9.05881L8.76457 8.47058L8.17634 8.7647ZM10.9998 14.0764L17.2939 6.41175L19.0586 9.05881L12.3646 13.8C12.5998 13.853 12.8352 13.9529 13.0234 14.0941L19.0586 10.5293V12.8823L13.6058 14.7941C13.6822 14.9706 13.7411 15.1647 13.7587 15.3706L18.4646 14.0589V16.1177H13.6645C13.5872 16.337 13.4673 16.5389 13.3116 16.7117L17.8822 16.9999L16.9998 17.8824L12.9528 17.0177L12.794 17.1059L15.5293 18.4706L14.3528 18.7646L11.7057 17.2941L11.7528 17.2765C11.4012 17.2264 11.073 17.0715 10.8108 16.8319C10.5487 16.5923 10.365 16.2792 10.2837 15.9336C10.2024 15.5879 10.2272 15.2257 10.355 14.8945C10.4828 14.5631 10.7075 14.278 10.9998 14.0764ZM13.1763 15.5294C13.1763 15.8414 13.0524 16.1406 12.8318 16.3613C12.6111 16.5819 12.3119 16.7058 11.9999 16.7058C11.6879 16.7058 11.3886 16.5819 11.168 16.3613C10.9473 16.1406 10.8233 15.8414 10.8233 15.5294C10.8233 15.2174 10.9473 14.9182 11.168 14.6975C11.3886 14.4769 11.6879 14.353 11.9999 14.353C12.3119 14.353 12.6111 14.4769 12.8318 14.6975C13.0524 14.9182 13.1763 15.2174 13.1763 15.5294ZM9.94106 15.8235L8.47045 17.5882L10.8233 18.7646H13.4704C13.2058 18.5883 12.8234 18.394 12.3998 18.1765C11.8823 17.9117 11.3058 17.6176 10.8233 17.2941C10.5735 17.1329 10.3639 16.9165 10.211 16.6615C10.058 16.4066 9.96563 16.1199 9.94106 15.8235ZM10.2352 14.647L14.3528 9.35293L11.9999 7.88234C11.9999 8.6647 11.5881 10.2941 9.94106 10.5293C10.2352 11.6058 10.2352 13.7647 10.2352 14.647ZM11.9999 16.1177C12.1558 16.1177 12.3056 16.0556 12.4158 15.9453C12.5261 15.8351 12.5882 15.6855 12.5882 15.5294C12.5882 15.3733 12.5261 15.2237 12.4158 15.1135C12.3056 15.0032 12.1558 14.9411 11.9999 14.9411C11.8438 14.9411 11.6942 15.0032 11.5839 15.1135C11.4737 15.2237 11.4116 15.3733 11.4116 15.5294C11.4116 15.6855 11.4737 15.8351 11.5839 15.9453C11.6942 16.0556 11.8438 16.1177 11.9999 16.1177Z" fill="url(#paint1_linear_364_10313)"/>
<path d="M5.94742 13.2L6.20625 14.5705L7.01214 13.2H7.4239L6.37095 14.9236H5.90037L5.52979 13.2H5.94742ZM8.05331 13.2L7.70625 14.9236H7.31801L7.65918 13.2H8.05331ZM8.8239 14.9411C8.63566 14.9411 8.47095 14.8999 8.34742 14.8235C8.28928 14.7907 8.24109 14.7427 8.20796 14.6847C8.17482 14.6267 8.15797 14.5609 8.15919 14.4941C8.15996 14.4724 8.16192 14.4508 8.16508 14.4294H8.56507C8.5533 14.4941 8.57684 14.553 8.62389 14.6C8.67683 14.6412 8.74742 14.6647 8.84154 14.6647C8.91957 14.6685 8.99709 14.6503 9.06507 14.6117C9.09082 14.5955 9.11194 14.5729 9.12637 14.5461C9.14079 14.5193 9.14805 14.4893 9.14742 14.4588C9.14742 14.3999 9.11801 14.353 9.05918 14.3118C9.00624 14.2764 8.91802 14.2352 8.79449 14.194C8.70243 14.1593 8.61212 14.1201 8.52389 14.0764C8.45589 14.0422 8.39578 13.9941 8.34742 13.9353C8.29783 13.8671 8.27293 13.7842 8.27683 13.6999C8.27683 13.5941 8.30624 13.4999 8.36507 13.4235C8.4239 13.347 8.51213 13.2824 8.62389 13.2412C8.72977 13.2 8.85919 13.1764 8.99448 13.1764C9.12977 13.1764 9.2533 13.2 9.34739 13.2353C9.45335 13.2765 9.5239 13.3352 9.58278 13.4117C9.62972 13.4824 9.65333 13.5706 9.64153 13.6706H9.22978V13.6412C9.22978 13.5823 9.21213 13.5411 9.16507 13.5058C9.1098 13.4681 9.04369 13.4494 8.97683 13.4529C8.90193 13.4507 8.82809 13.4711 8.76507 13.5118C8.73979 13.527 8.7189 13.5487 8.70446 13.5743C8.69002 13.6001 8.68253 13.6292 8.68272 13.6588C8.68272 13.6999 8.70037 13.7353 8.72977 13.7647C8.75918 13.7941 8.79449 13.8235 8.84743 13.8471L9.03566 13.9294L9.30621 14.047C9.3747 14.0858 9.43468 14.1378 9.48272 14.1999C9.5357 14.2588 9.55917 14.3412 9.55917 14.4353C9.55849 14.5298 9.52527 14.6212 9.46502 14.6941C9.39872 14.7766 9.31129 14.8396 9.21213 14.8765C9.10036 14.9177 8.97683 14.9411 8.82977 14.9411H8.8239Z" fill="#7A4500"/>
<path fill-rule="evenodd" clip-rule="evenodd" d="M12 19.0588C12.927 19.0588 13.8449 18.8762 14.7013 18.5215C15.5577 18.1667 16.3359 17.6468 16.9913 16.9913C17.6468 16.3359 18.1667 15.5577 18.5215 14.7013C18.8762 13.8449 19.0588 12.9269 19.0588 12C19.0588 11.073 18.8762 10.155 18.5215 9.29871C18.1667 8.44227 17.6468 7.66412 16.9913 7.00865C16.3359 6.35317 15.5577 5.83322 14.7013 5.47849C13.8449 5.12375 12.927 4.94116 12 4.94116C10.1279 4.94116 8.33244 5.68486 7.00865 7.00865C5.68487 8.33243 4.94116 10.1279 4.94116 12C4.94116 13.872 5.68487 15.6675 7.00865 16.9913C8.33244 18.3151 10.1279 19.0588 12 19.0588ZM12 22C14.6522 22 17.1957 20.9464 19.0711 19.071C20.9464 17.1957 22 14.6522 22 12C22 9.34785 20.9464 6.80429 19.0711 4.92892C17.1957 3.05357 14.6522 2 12 2C9.34784 2 6.80429 3.05357 4.92892 4.92892C3.05357 6.80429 2 9.34785 2 12C2 14.6522 3.05357 17.1957 4.92892 19.071C6.80429 20.9464 9.34784 22 12 22Z" fill="url(#paint2_linear_364_10313)"/>
<path fill-rule="evenodd" clip-rule="evenodd" d="M19.3529 12C19.3529 13.9501 18.5782 15.8204 17.1994 17.1992C15.8204 18.5782 13.9501 19.3529 12 19.3529C10.0499 19.3529 8.17962 18.5782 6.80068 17.1992C5.42173 15.8204 4.64705 13.9501 4.64705 12C4.64705 10.0499 5.42173 8.17962 6.80068 6.80068C8.17962 5.42173 10.0499 4.64705 12 4.64705C13.9501 4.64705 15.8204 5.42173 17.1994 6.80068C18.5782 8.17962 19.3529 10.0499 19.3529 12ZM12 21.7059C14.5741 21.7059 17.0429 20.6833 18.863 18.863C20.6833 17.0429 21.7058 14.5741 21.7058 12C21.7058 9.42581 20.6833 6.95711 18.863 5.13689C17.0429 3.31669 14.5741 2.29411 12 2.29411C9.4258 2.29411 6.95711 3.31669 5.1369 5.13689C3.3167 6.95711 2.29411 9.42581 2.29411 12C2.29411 14.5741 3.3167 17.0429 5.1369 18.863C6.95711 20.6833 9.4258 21.7059 12 21.7059ZM19.0588 12C19.0588 12.9269 18.8762 13.8449 18.5215 14.7013C18.1667 15.5577 17.6468 16.3359 16.9913 16.9913C16.3359 17.6468 15.5577 18.1667 14.7013 18.5215C13.8449 18.8762 12.927 19.0588 12 19.0588C11.073 19.0588 10.1552 18.8762 9.2987 18.5215C8.44229 18.1667 7.66412 17.6468 7.00865 16.9913C6.35317 16.3359 5.83322 15.5577 5.47849 14.7013C5.12375 13.8449 4.94116 12.9269 4.94116 12C4.94116 10.1279 5.68487 8.33243 7.00865 7.00865C8.33244 5.68486 10.1279 4.94116 12 4.94116C13.8722 4.94116 15.6676 5.68486 16.9913 7.00865C18.3151 8.33243 19.0588 10.1279 19.0588 12ZM22 12C22 14.6522 20.9464 17.1957 19.0711 19.071C17.1957 20.9464 14.6522 22 12 22C9.34784 22 6.80429 20.9464 4.92892 19.071C3.05357 17.1957 2 14.6522 2 12C2 9.34785 3.05357 6.80429 4.92892 4.92892C6.80429 3.05357 9.34784 2 12 2C14.6522 2 17.1957 3.05357 19.0711 4.92892C20.9464 6.80429 22 9.34785 22 12Z" fill="url(#paint3_linear_364_10313)"/>
<defs>
<linearGradient id="paint0_linear_364_10313" x1="12.0003" y1="2" x2="12.0003" y2="22" gradientUnits="userSpaceOnUse">
<stop stop-color="#F0D242"/>
<stop offset="0.2" stop-color="#FEF76F"/>
<stop offset="0.54" stop-color="#E1AF1B"/>
<stop offset="1" stop-color="#C27800"/>
</linearGradient>
<linearGradient id="paint1_linear_364_10313" x1="11.9965" y1="2.00059" x2="11.9965" y2="22" gradientUnits="userSpaceOnUse">
<stop stop-color="#B76A00"/>
<stop offset="1" stop-color="#603800"/>
</linearGradient>
<linearGradient id="paint2_linear_364_10313" x1="12" y1="2" x2="12" y2="22" gradientUnits="userSpaceOnUse">
<stop stop-color="#C68A00"/>
<stop offset="0.53" stop-color="#FCF571"/>
<stop offset="1" stop-color="#B27801"/>
</linearGradient>
<linearGradient id="paint3_linear_364_10313" x1="12" y1="2" x2="12" y2="22" gradientUnits="userSpaceOnUse">
<stop stop-color="#AE714D"/>
<stop offset="0.17" stop-color="#823300"/>
<stop offset="0.53" stop-color="#F6EC27"/>
<stop offset="1" stop-color="#E4B000"/>
</linearGradient>
</defs>
</svg>

<svg xmlns="http://www.w3.org/2000/svg" width="24" height="24" fill="none" viewBox="0 0 24 24">
    <path fill="url(#VIS__a)" d="M12 19.059A7.059 7.059 0 1 0 12 4.94a7.059 7.059 0 0 0 0 14.118"/>
    <path fill="url(#VIS__b)" fill-rule="evenodd" d="m6.153 11.365 1.7-2.265a.06.06 0 0 0-.006-.076l-.218-.218a.06.06 0 0 1 0-.082l1.706-1.706A.06.06 0 0 1 9.376 7h.836a.06.06 0 0 0 .04-.012l1.571-1.312c.047-.035.118.012.089.071l-.489 1.218a.06.06 0 0 0 .012.059c.106.129.27.429.27.858 0 .589 0 1.177-.293 1.47-.224.225-.942.442-1.653.666l-.683.211a.06.06 0 0 0-.03.024l-.558.835a.06.06 0 0 0 0 .059l.259.524a.06.06 0 0 1-.012.064l-.823.824a.06.06 0 0 1-.071 0l-1.67-1.118a.06.06 0 0 1-.018-.076m2.023-2.6.294.294.295-.588zM11 14.076l6.294-7.664 1.765 2.647-6.694 4.741c.235.053.47.153.658.294l6.036-3.565v2.353l-5.453 1.912c.076.177.135.37.153.577l4.706-1.312v2.059h-4.8c-.078.219-.198.42-.353.594l4.57.288-.882.882-4.047-.864-.159.088 2.735 1.365-1.176.294-2.647-1.47.047-.019a1.765 1.765 0 0 1-.753-3.2m2.176 1.453a1.177 1.177 0 1 1-2.353 0 1.177 1.177 0 0 1 2.353 0m-3.235.294-1.47 1.765 2.352 1.177h2.647c-.264-.177-.647-.371-1.07-.588-.518-.265-1.094-.56-1.577-.883a1.94 1.94 0 0 1-.882-1.47m.294-1.176 4.118-5.294L12 7.883c0 .782-.412 2.411-2.059 2.646.294 1.077.294 3.236.294 4.118M12 16.117a.588.588 0 1 0 0-1.176.588.588 0 0 0 0 1.177" clip-rule="evenodd"/>
    <path fill="#7A4500" d="m5.947 13.2.26 1.37.805-1.37h.412L6.37 14.924H5.9L5.53 13.2zm2.106 0-.347 1.724h-.388l.341-1.724zm.77 1.741a.9.9 0 0 1-.476-.118.37.37 0 0 1-.182-.394h.4a.19.19 0 0 0 .059.171.34.34 0 0 0 .218.065.4.4 0 0 0 .223-.053.18.18 0 0 0 .082-.153c0-.06-.029-.106-.088-.147a1.2 1.2 0 0 0-.265-.118 3 3 0 0 1-.27-.118.6.6 0 0 1-.177-.14.37.37 0 0 1-.07-.236q0-.16.088-.276a.57.57 0 0 1 .259-.183 1 1 0 0 1 .37-.065c.136 0 .26.024.353.06a.5.5 0 0 1 .236.176.38.38 0 0 1 .059.259H9.23v-.03c0-.059-.018-.1-.065-.135a.3.3 0 0 0-.188-.053.37.37 0 0 0-.212.059.17.17 0 0 0-.082.147q.001.06.047.106c.03.03.064.058.117.082l.189.082.27.118q.104.058.177.153a.34.34 0 0 1 .076.235.4.4 0 0 1-.094.26.6.6 0 0 1-.253.181 1.1 1.1 0 0 1-.382.065z"/>
    <path fill="url(#VIS__c)" fill-rule="evenodd" d="M12 19.059A7.06 7.06 0 1 0 12 4.94a7.06 7.06 0 0 0 0 14.119M12 22a10 10 0 1 0 0-20 10 10 0 0 0 0 20" clip-rule="evenodd"/>
    <path fill="url(#VIS__d)" fill-rule="evenodd" d="M19.353 12a7.353 7.353 0 1 1-14.706 0 7.353 7.353 0 0 1 14.706 0M12 21.706a9.705 9.705 0 1 0 0-19.41 9.705 9.705 0 0 0 0 19.41M19.059 12a7.06 7.06 0 1 1-14.12 0 7.06 7.06 0 0 1 14.12 0M22 12a10 10 0 1 1-20 0 10 10 0 0 1 20 0" clip-rule="evenodd"/>
    <defs>
        <linearGradient id="VIS__a" x1="12" x2="12" y1="2" y2="22" gradientUnits="userSpaceOnUse">
            <stop stop-color="#F0D242"/>
            <stop offset=".2" stop-color="#FEF76F"/>
            <stop offset=".54" stop-color="#E1AF1B"/>
            <stop offset="1" stop-color="#C27800"/>
        </linearGradient>
        <linearGradient id="VIS__b" x1="11.996" x2="11.996" y1="2.001" y2="22" gradientUnits="userSpaceOnUse">
            <stop stop-color="#B76A00"/>
            <stop offset="1" stop-color="#603800"/>
        </linearGradient>
        <linearGradient id="VIS__c" x1="12" x2="12" y1="2" y2="22" gradientUnits="userSpaceOnUse">
            <stop stop-color="#C68A00"/>
            <stop offset=".53" stop-color="#FCF571"/>
            <stop offset="1" stop-color="#B27801"/>
        </linearGradient>
        <linearGradient id="VIS__d" x1="12" x2="12" y1="2" y2="22" gradientUnits="userSpaceOnUse">
            <stop stop-color="#AE714D"/>
            <stop offset=".17" stop-color="#823300"/>
            <stop offset=".53" stop-color="#F6EC27"/>
            <stop offset="1" stop-color="#E4B000"/>
        </linearGradient>
    </defs>
</svg>
